X: 3153
T: Beauty Spot, The
R: reel
M: 4/4
K: Dmixolydian
HdB|(3.A.c.A GB (3.A.c.A dB|(3.A.c.A GF EF ~G2|(3.A.c.A GB (3.A.c.A dB|cAGE FDDB|
(3.A.c.A GB (3.A.c.A dB|(3.A.c.A GF EF ~G2|(3.A.c.A GB (3.A.c.A dB|cAGE FDDf|
ec~c2 ecdf|edcd efgf|edcd edcA|G2 (3Bcd ecdf|
ec~c2 ecdf|edcd ef~g2|af (3g.f.e. decA|G2 (3Bcd ecdB|

